X:230
T:Teetotaller's Reel
T:Temperance Reel
M:4/4
L:1/8
R:reel
K:G
(3DEF|"G"~G3F GABc|dBge dBAc|"Em"BEED EFGA|"D"BGAF GFED|
"G"~G3F GABc|dBge dBAc|"Em"BEED EFGA|"D"BGAF "G"G2:|
A2|"Em"Beed ~e3g|fgaf gfed|"D"Bdd^c ~d3e|fgaf gfed|
"Em"Beed ~e3g|fgaf gfed|BEED EFGA|"D"BGAF "G"G2:|
